src/icons/k6.svg

<svg role="img" viewBox="0 0 48 48" xmlns="http://www.w3.org/2000/svg"><path d="M47.368 46H1l15.436-32.926 9.299 6.835L37.863 1zm-17.001-7.112h.1a4.423 4.423 0 0 0 3.077-1.237 4.04 4.04 0 0 0 1.324-3.043 3.695 3.695 0 0 0-1.276-2.921 3.885 3.885 0 0 0-2.646-1.14h-.076c-.13 0-.26.018-.385.053l2.448-3.638-1.95-1.361-.923 1.361-2.358 3.602a25.867 25.867 0 0 0-.955 1.488 8.51 8.51 0 0 0-.56 1.206 3.74 3.74 0 0 0-.268 1.39 4.025 4.025 0 0 0 1.306 3.01 4.365 4.365 0 0 0 3.05 1.238zm-10.366-3.916 2.702 3.822h2.889l-3.179-4.434 2.823-3.919-1.874-1.297-.827 1.091-2.538 3.58v-7.197l-2.531-2.063v14.238h2.531v-3.824zm10.37 1.53c-1.432 0-2.327-1.551-1.611-2.791a1.86 1.86 0 0 1 1.611-.931h.017c.495.001.969.203 1.311.561.361.331.565.8.561 1.29a1.89 1.89 0 0 1-1.889 1.867z" fill="#7d64ff"/></svg>

<?xml version="1.0" encoding="utf-8"?>
<svg viewBox="0 0 48 48" width="48" height="48" xmlns="http://www.w3.org/2000/svg">
  <path d="M 47.368 46 L 1 46 L 16.436 13.074 L 25.735 19.909 L 37.863 1 L 47.368 46 Z M 30.367 38.888 L 30.467 38.888 C 31.614 38.89 32.718 38.447 33.544 37.651 C 34.401 36.873 34.883 35.765 34.868 34.608 C 34.906 33.491 34.437 32.418 33.592 31.687 C 32.889 30.982 31.942 30.574 30.946 30.547 L 30.87 30.547 C 30.74 30.547 30.61 30.565 30.485 30.6 L 32.933 26.962 L 30.983 25.601 L 30.06 26.962 L 27.702 30.564 C 27.296 31.161 26.957 31.687 26.747 32.052 C 26.529 32.439 26.342 32.842 26.187 33.258 C 26.01 33.7 25.919 34.172 25.919 34.648 C 25.907 35.791 26.382 36.886 27.225 37.658 C 28.041 38.453 29.136 38.897 30.275 38.896 L 30.367 38.888 Z M 20.001 34.972 L 22.703 38.794 L 25.592 38.794 L 22.413 34.36 L 25.236 30.441 L 23.362 29.144 L 22.535 30.235 L 19.997 33.815 L 19.997 26.618 L 17.466 24.555 L 17.466 38.793 L 19.997 38.793 L 19.997 34.969 L 20.001 34.972 Z M 30.371 36.502 C 28.939 36.502 28.044 34.951 28.76 33.711 C 29.092 33.135 29.707 32.78 30.371 32.78 L 30.388 32.78 C 30.883 32.781 31.357 32.983 31.699 33.341 C 32.06 33.672 32.264 34.141 32.26 34.631 C 32.247 35.665 31.406 36.497 30.371 36.498 L 30.371 36.502 Z" fill="#7d64ff"/>
</svg>
